projects/chubaofs/icon/white/chubaofs-icon-white.svg

<svg xmlns="http://www.w3.org/2000/svg" role="img" viewBox="2.11 0.36 354.53 358.28"><defs><style>.cls-1,.cls-3{fill:#fff}.cls-3{fill-rule:evenodd}</style></defs><path d="M261.64217 222.44292a91.03429 91.03429 0 1 1 3.603-78.25885H350a172.29318 172.29318 0 1 0-1.74279 78.25885z" class="cls-1"/><path d="M348.25721 222.44292h-86.615a91.04766 91.04766 0 0 1-171.35963-42.34679c-.0023.32058-.01378.63877-.01378.9599 0 86.93451 74.89662 151.11716 168.005 152.71721a172.7037 172.7037 0 0 0 89.98341-111.33032z" class="cls-1"/><path fill="#fff" d="M90.33585 176.89814c-.00688.22478-.01139.45019-.01708.67524q.00717-.33798.01708-.67524z" opacity=".59"/><path d="M126.98919 252.6178c.18362.13677.37533.2628.56005.39829-.18472-.1354-.37643-.26161-.56005-.39829zm3.55742 2.52036c.23616.159.482.3045.71979.46139-.23782-.1568-.48353-.30239-.71979-.46139zm7.48239 4.53073c.34759.18821.70675.3576 1.05709.5414-.35037-.1839-.70953-.3531-1.05709-.5414zm-3.80013-2.1782c.28769.17426.58595.33243.87576.50356-.28972-.17113-.58807-.3293-.87576-.50356zm7.71264 4.17631c.41482.19933.84186.37652 1.26018.56979-.41832-.19323-.84536-.37051-1.26018-.56979zm-24.69903-17.44186c-.04116-.04088-.08479-.07918-.12594-.12006.04115.04097.08478.07918.12594.12006zm6.31918 5.71008c.13089.10756.26822.20732.39976.31415-.13154-.10683-.26887-.20659-.39976-.31415zm-9.45241-8.96722l.0282.02948zm6.15953 6.12766c.084.076.1726.14687.25692.22256-.08432-.07569-.17287-.1466-.25692-.22256zm144.89168 83.02178q-.74238.41433-1.48909.8212.74694-.40714 1.48909-.8212zm-93.13327-59.98407c.99049.1004 1.993.1591 2.99269.22753-.99967-.06843-2.00211-.12713-2.99269-.22753zm4.61635.35063q2.32332.11753 4.67641.11822-2.35252-.00001-4.67641-.11822z" class="cls-1"/><path d="M258.27379 333.77324c-93.10837-1.60005-168.005-65.7827-168.005-152.71721 0-.32113.01148-.63932.01378-.9599v.0011c-.0011-.18289-.01378-.363-.01378-.54618A91.06714 91.06714 0 0 1 167.02267 89.626v-.646C92.16408 101.758 39.09956 165.693 39.09956 249.53252A108.2249 108.2249 0 0 0 45 284.95635a172.425 172.425 0 0 0 213.27921 48.81405z" class="cls-1"/><path d="M145.96189 263.47974c.47958.20227.97193.37964 1.45565.57392-.48372-.19428-.97607-.37166-1.45565-.57392zm21.51911 6.07686c.86226.13145 1.73682.224 2.6068.33124-.87004-.10711-1.74451-.19984-2.6068-.33124zm-4.473-.7974c.742.15156 1.49644.26748 2.24488.40086-.74846-.13338-1.50288-.2493-2.24488-.40086zm-12.92378-3.65801c.55179.20163 1.11671.37515 1.67345.56621-.55674-.19106-1.12167-.36467-1.67345-.56621zm8.52778 2.64529c.67965.17453 1.37216.31589 2.05777.475-.68571-.15902-1.37812-.30048-2.05777-.475zm-4.30991-1.22133c.62748.19465 1.2679.35843 1.90107.53984-.63316-.18141-1.27369-.34519-1.90107-.53984zm174.56456 2.06907c.24894-.41161.49153-.82689.73706-1.2407-.24544.41372-.48822.82928-.73706 1.2407zm-3.91125 6.16009c.22193-.33418.44909-.66422.66872-.99995-.21963.33573-.44679.66586-.66872.99995zm7.33392-12.08851c.1636-.29651.33326-.58908.49511-.8866-.16185.29762-.3316.59009-.49511.8866zm3.33109-6.34288c.2211-.44348.43678-.88981.65411-1.33541-.21724.4456-.43301.89202-.65411 1.33541zm3.03705-6.42068c.10481-.234.2155-.46461.31929-.69912-.10375.23451-.21448.46516-.31929.69912zM307.602 296.77388c.3351-.36081.673-.7185 1.005-1.08225-.332.36366-.67.72153-1.005 1.08225zm4.98464-5.59351c.28586-.33583.56446-.67753.84775-1.01557-.2832.33794-.56189.67993-.84775 1.01557zm4.12491-5.04706c.27778-.35236.55968-.70105.83479-1.0557-.27511.35456-.55701.70339-.83479 1.0557zm4.46037-5.90343c.27089-.37561.53488-.75608.80274-1.134-.26786.37774-.53194.75849-.80274 1.134zm24.92758-50.16057q.22458-.73358.44192-1.4698-.21825.73619-.44192 1.4698zm-4.71721 13.39469c.18739-.46892.37064-.93969.554-1.41064-.18345.47096-.36661.94182-.554 1.41064zm-53.06268 71.1532c-.42548.33758-.85491.67046-1.28369 1.00409.42887-.33372.85808-.66642 1.28369-1.00409zm-5.59048 4.25342c-.23368.17039-.46259.34694-.6971.51614.2346-.1692.46342-.34576.6971-.51614zm-5.6523 3.9491q-.69733.46708-1.40063.926.70242-.4606 1.40063-.926zm16.70007-12.71864c-.2718.23432-.53837.47453-.81155.70711.27327-.23268.53975-.47279.81155-.70711zm-22.87145 16.67067c-.16415.1-.32472.20539-.48923.305.16451-.0997.32508-.20487.48923-.305zm27.93927-21.21275c-.37983.35439-.76452.70344-1.14757 1.05442.38305-.35112.76774-.69999 1.14757-1.05442zm45.15328-69.06019c.05006-.14284.10444-.28356.15414-.42658-.0497.14302-.10414.28377-.15414.42658zm-40.82868 64.88866c.28651-.2865.56575-.57989.85023-.86841-.28439.28843-.56382.582-.85023.86841z" class="cls-1"/><path d="M239.0439 181.79658a23.6557 23.6557 0 0 0-9.31049-9.35642q-6.39777-3.77145-21.18506-7.45646-5.97477-1.43943-7.56788-3.10925a4.96889 4.96889 0 0 1-1.643-3.62741 6.287 6.287 0 0 1 1.99154-4.69259q1.99155-1.92885 5.92484-1.92889a10.40617 10.40617 0 0 1 7.4932 2.591q2.71355 2.591 3.5599 8.29134l21.25984-1.43949q-1.39412-13.128-8.738-19.14483t-21.33451-6.01688q-11.4017 0-17.94877 3.31069a22.58686 22.58686 0 0 0-9.80845 9.09738 24.65557 24.65557 0 0 0-3.26118 12.293q0 9.90355 6.373 16.29471 6.32322 6.39115 21.16026 10.24889 9.06156 2.30322 11.551 4.89421a8.25693 8.25693 0 0 1 2.4894 5.87294 8.345 8.345 0 0 1-2.61387 6.07457q-2.61392 2.61971-7.44341 2.61975a11.32522 11.32522 0 0 1-9.9578-5.12449q-2.14091-3.16671-2.83791-9.21248l-21.459 1.55458q.946 12.78243 8.11552 21.07364t25.79057 8.29134q10.60515 0 17.57546-3.54107a25.51186 25.51186 0 0 0 10.854-10.39293 29.8412 29.8412 0 0 0 3.88351-14.97032 26.60831 26.60831 0 0 0-2.91271-12.49453z" class="cls-3"/><path d="M179.981 177.41943a24.58161 24.58161 0 0 1-4.06419-7.18162H148.695v-14.71717h26.05915a29.73158 29.73158 0 0 1 12.005-18.109h-60.68586v84.27876H148.695v-34.43589h31.286z" class="cls-3"/></svg>

<svg id="图层_1" data-name="图层 1" xmlns="http://www.w3.org/2000/svg" viewBox="0 0 360 360"><defs><style>.cls-1,.cls-2,.cls-3{fill:#fff;}.cls-2{opacity:0.59;}.cls-3{fill-rule:evenodd;}</style></defs><title>chubaofs-icon-white</title><path class="cls-1" d="M261.64217,222.44292a91.03429,91.03429,0,1,1,3.603-78.25885H350a172.29318,172.29318,0,1,0-1.74279,78.25885Z"/><path class="cls-1" d="M348.25721,222.44292h-86.615A91.04766,91.04766,0,0,1,90.28258,180.09613c-.0023.32058-.01378.63877-.01378.9599,0,86.93451,74.89662,151.11716,168.005,152.71721A172.7037,172.7037,0,0,0,348.25721,222.44292Z"/><path class="cls-2" d="M90.33585,176.89814c-.00688.22478-.01139.45019-.01708.67524Q90.32594,177.2354,90.33585,176.89814Z"/><path class="cls-1" d="M126.98919,252.6178c.18362.13677.37533.2628.56005.39829C127.36452,252.88069,127.17281,252.75448,126.98919,252.6178Z"/><path class="cls-1" d="M130.54661,255.13816c.23616.159.482.3045.71979.46139C131.02858,255.44275,130.78287,255.29716,130.54661,255.13816Z"/><path class="cls-1" d="M138.029,259.66889c.34759.18821.70675.3576,1.05709.5414C138.73572,260.02639,138.37656,259.85719,138.029,259.66889Z"/><path class="cls-1" d="M134.22887,257.49069c.28769.17426.58595.33243.87576.50356C134.81491,257.82312,134.51656,257.66495,134.22887,257.49069Z"/><path class="cls-1" d="M141.94151,261.667c.41482.19933.84186.37652,1.26018.56979C142.78337,262.04356,142.35633,261.86628,141.94151,261.667Z"/><path class="cls-1" d="M117.24248,244.22514c-.04116-.04088-.08479-.07918-.12594-.12006C117.15769,244.14605,117.20132,244.18426,117.24248,244.22514Z"/><path class="cls-1" d="M123.56166,249.93522c.13089.10756.26822.20732.39976.31415C123.82988,250.14254,123.69255,250.04278,123.56166,249.93522Z"/><path class="cls-1" d="M114.10925,240.968l.0282.02948Z"/><path class="cls-1" d="M120.26878,247.09566c.084.076.1726.14687.25692.22256C120.44138,247.24253,120.35283,247.17162,120.26878,247.09566Z"/><path class="cls-1" d="M265.16046,330.11744q-.74238.41433-1.48909.8212Q264.41831,330.5315,265.16046,330.11744Z"/><path class="cls-1" d="M172.02719,270.13337c.99049.1004,1.993.1591,2.99269.22753C174.02021,270.29247,173.01777,270.23377,172.02719,270.13337Z"/><path class="cls-1" d="M176.64354,270.484q2.32332.11753,4.67641.11822Q178.96743,270.60221,176.64354,270.484Z"/><path class="cls-1" d="M258.27379,333.77324c-93.10837-1.60005-168.005-65.7827-168.005-152.71721,0-.32113.01148-.63932.01378-.9599v.0011c-.0011-.18289-.01378-.363-.01378-.54618A91.06714,91.06714,0,0,1,167.02267,89.626V88.98C92.16408,101.758,39.09956,165.693,39.09956,249.53252A108.2249,108.2249,0,0,0,45,284.95635,172.425,172.425,0,0,0,258.27921,333.7704Z"/><path class="cls-1" d="M145.96189,263.47974c.47958.20227.97193.37964,1.45565.57392C146.93382,263.85938,146.44147,263.682,145.96189,263.47974Z"/><path class="cls-1" d="M167.481,269.5566c.86226.13145,1.73682.224,2.6068.33124C169.21776,269.78073,168.34329,269.688,167.481,269.5566Z"/><path class="cls-1" d="M163.008,268.7592c.742.15156,1.49644.26748,2.24488.40086C164.50442,269.02668,163.75,268.91076,163.008,268.7592Z"/><path class="cls-1" d="M150.08422,265.10119c.55179.20163,1.11671.37515,1.67345.56621C151.20093,265.47634,150.636,265.30273,150.08422,265.10119Z"/><path class="cls-1" d="M158.612,267.74648c.67965.17453,1.37216.31589,2.05777.475C159.98406,268.06246,159.29165,267.921,158.612,267.74648Z"/><path class="cls-1" d="M154.30209,266.52515c.62748.19465,1.2679.35843,1.90107.53984C155.57,266.88358,154.92947,266.7198,154.30209,266.52515Z"/><path class="cls-1" d="M328.86665,268.59422c.24894-.41161.49153-.82689.73706-1.2407C329.35827,267.76724,329.11549,268.1828,328.86665,268.59422Z"/><path class="cls-1" d="M324.9554,274.75431c.22193-.33418.44909-.66422.66872-.99995C325.40449,274.09009,325.17733,274.42022,324.9554,274.75431Z"/><path class="cls-1" d="M332.28932,262.6658c.1636-.29651.33326-.58908.49511-.8866C332.62258,262.07682,332.45283,262.36929,332.28932,262.6658Z"/><path class="cls-1" d="M335.62041,256.32292c.2211-.44348.43678-.88981.65411-1.33541C336.05728,255.43311,335.84151,255.87953,335.62041,256.32292Z"/><path class="cls-1" d="M338.65746,249.90224c.10481-.234.2155-.46461.31929-.69912C338.873,249.43763,338.76227,249.66828,338.65746,249.90224Z"/><path class="cls-1" d="M307.602,296.77388c.3351-.36081.673-.7185,1.005-1.08225C308.275,296.05529,307.937,296.41316,307.602,296.77388Z"/><path class="cls-1" d="M312.58664,291.18037c.28586-.33583.56446-.67753.84775-1.01557C313.15119,290.50274,312.8725,290.84473,312.58664,291.18037Z"/><path class="cls-1" d="M316.71155,286.13331c.27778-.35236.55968-.70105.83479-1.0557C317.27123,285.43217,316.98933,285.781,316.71155,286.13331Z"/><path class="cls-1" d="M321.17192,280.22988c.27089-.37561.53488-.75608.80274-1.134C321.7068,279.47362,321.44272,279.85437,321.17192,280.22988Z"/><path class="cls-1" d="M346.0995,230.06931q.22458-.73358.44192-1.4698Q346.32317,229.3357,346.0995,230.06931Z"/><path class="cls-1" d="M341.38229,243.464c.18739-.46892.37064-.93969.554-1.41064C341.75284,242.52432,341.56968,242.99518,341.38229,243.464Z"/><path class="cls-1" d="M288.31961,314.6172c-.42548.33758-.85491.67046-1.28369,1.00409C287.46479,315.28757,287.894,314.95487,288.31961,314.6172Z"/><path class="cls-1" d="M282.72913,318.87062c-.23368.17039-.46259.34694-.6971.51614C282.26663,319.21756,282.49545,319.041,282.72913,318.87062Z"/><path class="cls-1" d="M277.07683,322.81972q-.69733.46708-1.40063.926Q276.37862,323.28512,277.07683,322.81972Z"/><path class="cls-1" d="M293.7769,310.10108c-.2718.23432-.53837.47453-.81155.70711C293.23862,310.57551,293.5051,310.3354,293.7769,310.10108Z"/><path class="cls-1" d="M270.90545,326.77175c-.16415.1-.32472.20539-.48923.305C270.58073,326.97705,270.7413,326.87188,270.90545,326.77175Z"/><path class="cls-1" d="M298.84472,305.559c-.37983.35439-.76452.70344-1.14757,1.05442C298.0802,306.2623,298.46489,305.91343,298.84472,305.559Z"/><path class="cls-1" d="M343.998,236.49881c.05006-.14284.10444-.28356.15414-.42658C344.10244,236.21525,344.048,236.356,343.998,236.49881Z"/><path class="cls-1" d="M303.16932,301.38747c.28651-.2865.56575-.57989.85023-.86841C303.73516,300.80749,303.45573,301.10106,303.16932,301.38747Z"/><path class="cls-3" d="M239.0439,181.79658a23.6557,23.6557,0,0,0-9.31049-9.35642q-6.39777-3.77145-21.18506-7.45646-5.97477-1.43943-7.56788-3.10925a4.96889,4.96889,0,0,1-1.643-3.62741,6.287,6.287,0,0,1,1.99154-4.69259q1.99155-1.92885,5.92484-1.92889a10.40617,10.40617,0,0,1,7.4932,2.591q2.71355,2.591,3.5599,8.29134l21.25984-1.43949q-1.39412-13.128-8.738-19.14483t-21.33451-6.01688q-11.4017,0-17.94877,3.31069a22.58686,22.58686,0,0,0-9.80845,9.09738,24.65557,24.65557,0,0,0-3.26118,12.293q0,9.90355,6.373,16.29471,6.32322,6.39115,21.16026,10.24889,9.06156,2.30322,11.551,4.89421a8.25693,8.25693,0,0,1,2.4894,5.87294,8.345,8.345,0,0,1-2.61387,6.07457q-2.61392,2.61971-7.44341,2.61975a11.32522,11.32522,0,0,1-9.9578-5.12449q-2.14091-3.16671-2.83791-9.21248l-21.459,1.55458q.946,12.78243,8.11552,21.07364t25.79057,8.29134q10.60515,0,17.57546-3.54107a25.51186,25.51186,0,0,0,10.854-10.39293,29.8412,29.8412,0,0,0,3.88351-14.97032A26.60831,26.60831,0,0,0,239.0439,181.79658Z"/><path class="cls-3" d="M179.981,177.41943a24.58161,24.58161,0,0,1-4.06419-7.18162H148.695V155.52064h26.05915a29.73158,29.73158,0,0,1,12.005-18.109H126.07329v84.27876H148.695V187.25451h31.286Z"/></svg>
